poi/svg/1819.svg

<?xml version="1.0" encoding="UTF-8" standalone="no"?>
<svg
   xmlns:dc="http://purl.org/dc/elements/1.1/"
   xmlns:cc="http://creativecommons.org/ns#"
   xmlns:rdf="http://www.w3.org/1999/02/22-rdf-syntax-ns#"
   xmlns:svg="http://www.w3.org/2000/svg"
   xmlns="http://www.w3.org/2000/svg"
   xmlns:sodipodi="http://sodipodi.sourceforge.net/DTD/sodipodi-0.dtd"
   xmlns:inkscape="http://www.inkscape.org/namespaces/inkscape"
   inkscape:version="1.0 (4035a4fb49, 2020-05-01)"
   sodipodi:docname="1819.svg"
   id="svg20"
   version="1.2"
   viewBox="0 0 42.519639 42.519639"
   height="14.999999mm"
   width="14.999999mm">
  <metadata
     id="metadata24">
    <rdf:RDF>
      <cc:Work
         rdf:about="">
        <dc:format>image/svg+xml</dc:format>
        <dc:type
           rdf:resource="http://purl.org/dc/dcmitype/StillImage" />
        <dc:title>Qt SVG Document</dc:title>
      </cc:Work>
    </rdf:RDF>
  </metadata>
  <sodipodi:namedview
     inkscape:current-layer="svg20"
     inkscape:window-maximized="0"
     inkscape:window-y="0"
     inkscape:window-x="0"
     inkscape:cy="28.346482"
     inkscape:cx="28.346482"
     inkscape:zoom="5.8410537"
     showgrid="false"
     id="namedview22"
     inkscape:window-height="480"
     inkscape:window-width="1034"
     inkscape:pageshadow="2"
     inkscape:pageopacity="0"
     guidetolerance="10"
     gridtolerance="10"
     objecttolerance="10"
     borderopacity="1"
     bordercolor="#666666"
     pagecolor="#ffffff" />
  <title
     id="title2">Qt SVG Document</title>
  <desc
     id="desc4">Generated with Qt</desc>
  <defs
     id="defs6" />
  <g
     transform="translate(5.25984,5.25984)"
     id="g18"
     stroke-linejoin="bevel"
     stroke-linecap="square"
     fill-rule="evenodd"
     stroke-width="1"
     stroke="#000000"
     fill="none">
    <g
       id="g10"
       font-style="normal"
       font-weight="400"
       font-size="7.8px"
       font-family="'MS Shell Dlg 2'"
       stroke="none"
       fill-opacity="1"
       fill="#a61215">
      <path
         id="path8"
         d="M 37.2598,16 C 37.2598,27.7415 27.7415,37.2598 16,37.2598 4.25851,37.2598 -5.25984,27.7415 -5.25984,16 -5.25984,4.25851 4.25851,-5.25984 16,-5.25984 27.7415,-5.25984 37.2598,4.25851 37.2598,16"
         fill-rule="evenodd"
         vector-effect="non-scaling-stroke" />
    </g>
    <g
       id="g14"
       font-style="normal"
       font-weight="400"
       font-size="7.8px"
       font-family="'MS Shell Dlg 2'"
       transform="translate(16.5669,12.5984)"
       stroke="none"
       fill-opacity="0.94902"
       fill="#ffffff">
      <path
         id="path12"
         d="m 0.111816,-2.16797 c 1.007814,0 1.928144,0.13648 2.760984,0.40943 0.83285,0.27294 1.6342,0.62288 2.40406,1.0498 0.76985,0.42692 1.53621,0.850342 2.29907,1.270263 0.76286,0.419922 1.78817,1.000817 3.07597,1.742677 1.2877,0.74186 3.1354,1.53971 5.5429,2.39355 -0.112,0.12598 -2.2326,1.58871 -6.36179,4.38819 H 9.79102 c 0,-0.16797 0.00699,-0.31494 0.02099,-0.44092 0.014,-0.12598 0.021,-0.25195 0.021,-0.37793 C 9.83301,7.73519 9.49707,6.99333 8.8252,6.0415 8.15332,5.08968 7.34497,4.21484 6.40015,3.41699 5.45532,2.61914 4.43701,1.96126 3.34521,1.44336 2.25342,0.925456 1.2876,0.666504 0.447754,0.666504 H 0.111816 -0.182129 c -0.839841,0 -1.802161,0.258952 -2.886961,0.776856 -1.0848,0.5179 -2.09961,1.17578 -3.04444,1.97363 -0.94482,0.79785 -1.75667,1.67269 -2.43554,2.62451 -0.67888,0.95183 -1.01831,1.69369 -1.01831,2.22559 0,0.12598 0.01399,0.25195 0.04199,0.37793 C -9.4974,8.771 -9.4834,8.91797 -9.4834,9.08594 H -9.56738 L -16.0972,4.40381 c 2.0017,-0.46192 3.6848,-1.00781 5.0496,-1.6377 1.36474,-0.62988 2.621,-1.30875 3.76879,-2.036618 1.14779,-0.7278644 2.29557,-1.392741 3.44336,-1.994632 1.14779,-0.60188 2.46354,-0.90283 3.947266,-0.90283"
         fill-rule="evenodd"
         vector-effect="none" />
    </g>
    <g
       id="g16"
       font-style="normal"
       font-weight="400"
       font-size="7.8px"
       font-family="'MS Shell Dlg 2'"
       stroke="none"
       fill-opacity="1"
       fill="#a61215" />
  </g>
</svg>

<?xml version="1.0" encoding="UTF-8" standalone="no"?>
<svg width="11.2889mm" height="11.2889mm"
 viewBox="0 0 32 32"
 xmlns="http://www.w3.org/2000/svg" xmlns:xlink="http://www.w3.org/1999/xlink"  version="1.2" baseProfile="tiny">
<title>Qt SVG Document</title>
<desc>Generated with Qt</desc>
<defs>
</defs>
<g fill="none" stroke="black" stroke-width="1" fill-rule="evenodd" stroke-linecap="square" stroke-linejoin="bevel" >

<g fill="#a61215" fill-opacity="1" stroke="none" transform="matrix(1,0,0,1,0,0)"
font-family="MS Shell Dlg 2" font-size="7.8" font-weight="400" font-style="normal" 
>
<path vector-effect="non-scaling-stroke" fill-rule="evenodd" d="M37.2598,16 C37.2598,27.7415 27.7415,37.2598 16,37.2598 C4.25851,37.2598 -5.25984,27.7415 -5.25984,16 C-5.25984,4.25851 4.25851,-5.25984 16,-5.25984 C27.7415,-5.25984 37.2598,4.25851 37.2598,16 "/>
</g>

<g fill="#ffffff" fill-opacity="0.94902" stroke="none" transform="matrix(1,0,0,1,16.5669,12.5984)"
font-family="MS Shell Dlg 2" font-size="7.8" font-weight="400" font-style="normal" 
>
<path vector-effect="none" fill-rule="evenodd" d="M0.111816,-2.16797 C1.11963,-2.16797 2.03996,-2.03149 2.8728,-1.75854 C3.70565,-1.4856 4.507,-1.13566 5.27686,-0.70874 C6.04671,-0.28182 6.81307,0.141602 7.57593,0.561523 C8.33879,0.981445 9.3641,1.56234 10.6519,2.3042 C11.9396,3.04606 13.7873,3.84391 16.1948,4.69775 C16.0828,4.82373 13.9622,6.28646 9.83301,9.08594 L9.79102,9.08594 C9.79102,8.91797 9.79801,8.771 9.81201,8.64502 C9.82601,8.51904 9.83301,8.39307 9.83301,8.26709 C9.83301,7.73519 9.49707,6.99333 8.8252,6.0415 C8.15332,5.08968 7.34497,4.21484 6.40015,3.41699 C5.45532,2.61914 4.43701,1.96126 3.34521,1.44336 C2.25342,0.925456 1.2876,0.666504 0.447754,0.666504 L0.111816,0.666504 L-0.182129,0.666504 C-1.02197,0.666504 -1.98429,0.925456 -3.06909,1.44336 C-4.15389,1.96126 -5.1687,2.61914 -6.11353,3.41699 C-7.05835,4.21484 -7.8702,5.08968 -8.54907,6.0415 C-9.22795,6.99333 -9.56738,7.73519 -9.56738,8.26709 C-9.56738,8.39307 -9.55339,8.51904 -9.52539,8.64502 C-9.4974,8.771 -9.4834,8.91797 -9.4834,9.08594 L-9.56738,9.08594 L-16.0972,4.40381 C-14.0955,3.94189 -12.4124,3.396 -11.0476,2.76611 C-9.68286,2.13623 -8.4266,1.45736 -7.27881,0.729492 C-6.13102,0.0016276 -4.98324,-0.663249 -3.83545,-1.26514 C-2.68766,-1.86702 -1.37191,-2.16797 0.111816,-2.16797 "/>
</g>

<g fill="#a61215" fill-opacity="1" stroke="none" transform="matrix(1,0,0,1,0,0)"
font-family="MS Shell Dlg 2" font-size="7.8" font-weight="400" font-style="normal" 
>
</g>
</g>
</svg>
